material/.icons/material/battery-charging-wireless-30.svg

<svg xmlns="http://www.w3.org/2000/svg" viewBox="0 0 24 24"><path d="M20.07 4.93l-1.41 1.41c3.13 3.12 3.13 8.19 0 11.32l1.41 1.41c3.9-3.9 3.9-10.23 0-14.14m-2.83 2.83l-1.41 1.41a4.008 4.008 0 010 5.66l1.41 1.41a6 6 0 000-8.48M13 4h-2V2H5v2H3a1 1 0 00-1 1v16a1 1 0 001 1h10a1 1 0 001-1V5a1 1 0 00-1-1m-1 12H4V6h8v10z"/></svg>

<?xml version="1.0" encoding="UTF-8"?><!DOCTYPE svg PUBLIC "-//W3C//DTD SVG 1.1//EN" "http://www.w3.org/Graphics/SVG/1.1/DTD/svg11.dtd"><svg xmlns="http://www.w3.org/2000/svg" xmlns:xlink="http://www.w3.org/1999/xlink" version="1.1" id="mdi-battery-charging-wireless-30" width="24" height="24" viewBox="0 0 24 24"><path d="M20.07,4.93L18.66,6.34C21.79,9.46 21.79,14.53 18.66,17.66L20.07,19.07C23.97,15.17 23.97,8.84 20.07,4.93M17.24,7.76L15.83,9.17C17.39,10.73 17.39,13.26 15.83,14.83L17.24,16.24C19.58,13.9 19.58,10.1 17.24,7.76M13,4H11V2H5V4H3A1,1 0 0,0 2,5V21A1,1 0 0,0 3,22H13A1,1 0 0,0 14,21V5A1,1 0 0,0 13,4M12,16H4V6H12V16Z" /></svg>
